!!!OTL: 102. Hopke
!!!Genre:	Hopke
!!!Mode:	Freygish
!!!Listening/dance:	dance
!!!:	*F:; *C:
!!!One_Mode:	no
**kern
*part1
*staff1
*clefG2
*k[b-e-a-]
*G:frey
*M2/4
=1-
*>A
(>8qg/
16bnLL)
16ccJ
[8ddJ
16ddLL]
16ff
16ee-
16ddJJ
=2
16ccLL
16ee-
16dd
16ccJJ
8bnL
8ccJ
=3
16ddLL
16ee-
16dd
16ccJJ
16bnLL
16cc
16b
16a-JJ
=4
8gL
8bn
8dd
8ggJ
=5
16bnLL
16ccJ
[8ddJ
16ddLL]
16ff
16ee-
16ddJJ
=6
16ccLL
16ee-
16dd
16ccJJ
8bnL
8ccJ
=7
16ddLL
16ee-
16dd
16ccJJ
16bnLL
16cc
16b
16a-JJ
*>A1
=8
4g
4gg
*>A2
=9:|!
[4g
8gL]
*>bM
*F:
16fL
16anJJ
=10!|:
*k[b-]
*>B
!LO:TX:a:i:t=F-major
4cc
8b-L
16aL
16gJJ
=11
16fLL
16a
16cc
16aJJ
8b-L
16aL
16gJJ
=12
16fLL
16a
16cc
16aJJ
8b-L
16aL
16gJJ
=13
8fL
8a
8cc
8ffJ
=14
4cc
8b-L
16aL
16gJJ
=15
16fLL
16a
16cc
16aJJ
8b-L
16aL
16gJJ
*>eM
*G:frey
!LO:TX:a:i:t=G-freygish
=16
16fLL
16bn
16dd
16ccJJ
8.bL
16a-XJk
*>eM1
=17
(<16a-XLL
16gJJ)
4g
16fLL
16anJJ
*>eM2
=18:|!
(16a-XLL
16gJJ)
[4g
8g']
*>bM
*C:
=19!|:
*>C
*k[]
!LO:TX:a:i:t=C-major
(>4.ccT
8g)
=20
4.ccT
8g
=21
(>8.ccLT
16gJk)
(>8.ddTL
16gJk)
=22
(>8.eetL
16gJk)
(>8.ffTL
16gJk)
=23
16ggLL
16g
16ff
16gJJ
16eeLL
16gJ
16dd
16gJ
=24
16ccLL
16b
16cc
16eeJJ
8ddL
16b
16gJk
=25
16ccLL
16g
16cc
16eeJJ
16ddLL
16g
16dd
16ffJJ
=26
16eeLL
16cc
16ee
16ggJJ
*>eM
*>bM
*D:frey
!LO:TX:a:i:t=D-freygish
16ff#XLL
16dd
16aa
16ggJJ
=27
4ff#X
16ee-XLL
16dd
16ee-
16ccJJ
=28
4.dd
8dd
=29:|!|:
*>eM
*G:frey
*>D
*k[b-e-a-]
!LO:TX:a:i:t=G-freygish
4gg
16ffLL
16ee-
16dd
16ccJJ
=30
16bnLL
16ccJ
[8ddJ
16ddLL]
16ff
16ee-
16ddJJ
=31
16ccLL
16f
16g
16a-JJ
16bnLL
16cc
16a-
16bJJ
=32
4g
4gg
=33
(>16bb-XLL
16aan
16aa-X
16ggJJ
16ff#XLL
16ffn
16een
16ee-XJJ)
=34
16ee-LL
16dd
16ff
16ee-JJ
8.ddL
16ccJk
=35
16bnLL
16cc
16dd
16ccJJ
8.btL
16a-Jk
=36
16a-LL
16gJJ
4g
8r
=:|!
*-
